X:8
T:La Belle Berg?re
M:3/4
L:1/4
K:C
G|:c3|dcd|ecd|e3|1 dfe|d3-|d2e:|2 fde|c3-|c2||
|:e/f/|g3|gag|fde|f3|fgf|ecd|e3|1 dfe|d3-|d2:|2 fde|c3-|c2|]
<end>
<start>
